X: 69
T: REELS: Windbroke Set
T: First of August
C: C: Donough Hennessy / Michael McGoldrick; S: Various
C: Set Leaders: Vova, Anton
Z: Oleg Naumov arr.; Erik-Fiddler / Donough at The Session
N: https://thesession.org/members/26966/sets/96726
R: Reel
M: 4/4
L: 1/8
Q: 1/2=100
K: Edor
|:"Em"DE E/E/E GEGA|"G"B/B/B Bd BAGB|"D"A/B/A AB AGEG|"A"B/d/e dB AGEG|
"Em"DE E/E/E GEGA|"G"[B3D3]d BAGB|"D"A/A/A AB AGED|1 "A"EGAE GAEG:|2 "A"EGAG ABcd||
|:"C"g2 ag "D"fedB|"Em"[e3B3]d BAGA|"C"EG G/G/G "D"A2 GA|"G"[B3D3]d BAGA|
"Em"EG G/G/G "D"AG G/G/G|"C"B/d/e dB AGEG|"Am"DEGB "D"AGAB|1 "G"G/G/G GF GA B/c/d:|2 "Am"G2 GF "Bm"G2EG||
T: Windbroke
K: Emin
|:"Em"BE~E2 GAB"Em"E-|EGAd "Em"B2 AG|BE~E2 GAB"Am"c-|cBAG "Bm7"ABAG|
"Em"BE~E2 GAB"Em"E-|EGAd "Em"B2 AG|e"D"dde "Bm7"~B2 A"Am"G|A2 AG "Bm7"FGAc:||
|:"Em"Begf efd"Em"e-|eedf e2 eA|Begf efg"Am"a-|a a2 g "Bm7"fede|
"Em (C)"Begf efd"Em"e-|eedf e2 eB|"Am"~c3 A "(G)"~B3 G|"D/F#"A2 AG "(Bm7)"FGAc:||

